static/quality_bg.svg

<svg width="272" height="334" viewBox="0 0 272 334" fill="none" xmlns="http://www.w3.org/2000/svg">
<path d="M69.459 226L37 303.689L77.6163 292.048L97.9248 329L136 246.873L174.076 329L194.384 292.048L235 303.689L202.542 226" stroke="#1B8976" stroke-opacity="0.2" stroke-width="10" stroke-miterlimit="10" stroke-linecap="round" stroke-linejoin="round"/>
<path d="M5 130.5C5 117.184 22.141 106.743 26.0381 94.7273C30.0771 82.2744 22.4794 63.7667 30.014 53.4011C37.6242 42.9316 57.6037 44.4841 68.0603 36.865C78.4138 29.3216 83.0711 9.77655 95.5094 5.73281C107.511 1.83183 122.7 14.7761 136 14.7761C149.3 14.7761 164.489 1.83183 176.49 5.73347C188.928 9.77721 193.586 29.3223 203.94 36.8657C214.397 44.4848 234.376 42.9323 241.986 53.4018C249.521 63.7674 241.924 82.2744 245.962 94.7273C249.859 106.743 267 117.184 267 130.5C267 143.816 249.859 154.257 245.962 166.273C241.923 178.725 249.521 197.233 241.986 207.599C234.376 218.068 214.396 216.516 203.94 224.135C193.586 231.678 188.929 251.223 176.491 255.267C164.489 259.169 149.3 246.224 136 246.224C122.7 246.224 107.511 259.169 95.5101 255.267C83.0717 251.223 78.4144 231.678 68.061 224.135C57.6037 216.516 37.6248 218.068 30.014 207.599C22.4794 197.233 30.0764 178.726 26.0381 166.273C22.141 154.257 5 143.816 5 130.5Z" stroke="#1B8976" stroke-opacity="0.2" stroke-width="10" stroke-miterlimit="10" stroke-linecap="round" stroke-linejoin="round"/>
<path d="M136 220C185.153 220 225 179.929 225 130.5C225 81.0705 185.153 41 136 41C86.8467 41 47 81.0705 47 130.5C47 179.929 86.8467 220 136 220Z" stroke="#1B8976" stroke-opacity="0.2" stroke-width="10" stroke-miterlimit="10" stroke-linecap="round" stroke-linejoin="round"/>
<path d="M136 71L153.305 105.893L192 111.488L164 138.649L170.61 177L136 158.893L101.39 177L108 138.649L80 111.488L118.695 105.893L136 71Z" stroke="#1B8976" stroke-opacity="0.2" stroke-width="10" stroke-miterlimit="10" stroke-linecap="round" stroke-linejoin="round"/>
</svg>

<svg xmlns="http://www.w3.org/2000/svg" width="272" height="334" fill="none"><path stroke="#1B8976" stroke-linecap="round" stroke-linejoin="round" stroke-miterlimit="10" stroke-opacity=".2" stroke-width="10" d="M69.46 226 37 303.69l40.62-11.64L97.92 329 136 246.87 174.08 329l20.3-36.95L235 303.69 202.54 226"/><path stroke="#1B8976" stroke-linecap="round" stroke-linejoin="round" stroke-miterlimit="10" stroke-opacity=".2" stroke-width="10" d="M5 130.5c0-13.32 17.14-23.76 21.04-35.77C30.08 82.27 22.48 63.77 30 53.4c7.61-10.47 27.6-8.92 38.05-16.53 10.35-7.55 15.01-27.1 27.45-31.14 12-3.9 27.19 9.05 40.49 9.05s28.49-12.95 40.49-9.05c12.44 4.05 17.1 23.6 27.45 31.14 10.46 7.61 30.44 6.06 38.05 16.53 7.53 10.37-.07 28.87 3.97 41.33 3.9 12.01 21.04 22.45 21.04 35.77 0 13.32-17.14 23.76-21.04 35.77-4.04 12.45 3.56 30.96-3.97 41.33-7.61 10.47-27.6 8.92-38.05 16.53-10.35 7.55-15.01 27.1-27.45 31.14-12 3.9-27.19-9.05-40.49-9.05s-28.49 12.95-40.49 9.05c-12.44-4.05-17.1-23.6-27.45-31.14-10.46-7.61-30.44-6.06-38.05-16.53-7.53-10.37.07-28.87-3.97-41.33C22.14 154.26 5 143.82 5 130.5Z"/><path stroke="#1B8976" stroke-linecap="round" stroke-linejoin="round" stroke-miterlimit="10" stroke-opacity=".2" stroke-width="10" d="M136 220c49.15 0 89-40.07 89-89.5S185.15 41 136 41s-89 40.07-89 89.5S86.85 220 136 220Z"/><path stroke="#1B8976" stroke-linecap="round" stroke-linejoin="round" stroke-miterlimit="10" stroke-opacity=".2" stroke-width="10" d="m136 71 17.3 34.9 38.7 5.59-28 27.16 6.61 38.35L136 158.9 101.39 177l6.61-38.35-28-27.16 38.7-5.6L136 71Z"/></svg>
